!! 00000] TT[WS
!!!OTL: Pan wugeng
!!!ARE: Asia, China, Shanxi Jinzhong
!! Ethnic Group: Han
!! WII, 90 (2)
!!!SCT: J0534
!!!YEM: Copyright 1995, estate of Helmut Schaffrath.
**kern
*ICvox
*Ivox
*M2/4
*k[f#c#g#]
*A:
{8a
4a
8b
=1
8cc#
8ee
8cc#
8b
=2
8cc#
8a
8b
8cc#
=3
4a
4r}
=4
{8ee
8cc#
8ee
8cc#
=5
8b
8cc#
8b
8a
=6
8f#
8f#
8a
8c#
=7
2e}
=8
{8a
8c#
4e
=9
8e
8cc#
8b
8cc#
=10
4e
4f#}
=11
{8a
8a
8b
8cc#
=12
8a
8a
8b
8cc#
=13
2a}
==
!!!AGN: Xiaodiao. Qingge, Sichun
!!!ONB: ESAC (Essen Associative Code) Database: CHINA
!!!AMT: simple duple
!!!AIN: vox
!!!EED: Helmut Schaffrath
!!!EEV: 1.0
*-
